X:0071
T:Bonny Breast Notes.
M:2/4
L:1/8
I: :: ::
% D E ^F G A B ^c d e ^f g a
Z:Jack Campin * www.campin.me.uk * 2009
K:D
GBBG|FAAF   |Eeed|c2BA   |GBBG|FAAc|d/c/B/c/ dF|E2 D2:|
fdfd|faag/f/|ecec|eggf/e/|fdfd|faac|d/c/B/c/ dF|E2 D2:|
<end>
<start>
